flutter/assets/call_end.svg

<svg xmlns="http://www.w3.org/2000/svg" width="32pt" height="32pt" style="isolation:isolate" viewBox="587.811 560.459 32 32"><path fill="none" d="M587.811 560.459h32v32h-32v-32Z"/><path fill-rule="evenodd" d="m601.469 580.246-3.859 3.858a1.02 1.02 0 1 1-1.444-1.444l3.858-3.859 2.554-2.553 3.85-3.851a1.022 1.022 0 0 1 1.445 1.445l-3.851 3.85 2.299 2.299a1.23 1.23 0 0 0 1.717.014q3.089-2.988 6.218-.117.03.026.089.083c.34.34.527.8.527 1.276a1.78 1.78 0 0 1-.528 1.277l-1.366 1.366a5.557 5.557 0 0 1-7.861.004l-3.648-3.648Zm-.923-6.031-.267-.266a1.23 1.23 0 0 1-.014-1.717q2.988-3.09.117-6.218-.026-.031-.083-.089c-.341-.34-.8-.527-1.276-.527a1.78 1.78 0 0 0-1.277.528l-1.366 1.366a5.555 5.555 0 0 0-.004 7.861l1.616 1.616a.832.832 0 0 0 1.175 0l1.379-1.378a.833.833 0 0 0 0-1.176Z"/></svg>

<?xml version="1.0" encoding="UTF-8" standalone="no"?>
<svg xmlns="http://www.w3.org/2000/svg" xmlns:xlink="http://www.w3.org/1999/xlink" style="isolation:isolate" viewBox="587.811 560.459 32 32" width="32pt" height="32pt"><g><path d=" M 587.811 560.459 L 619.811 560.459 L 619.811 592.459 L 587.811 592.459 L 587.811 560.459 Z " fill="none"/><path d=" M 601.469 580.246 L 597.61 584.104 C 597.212 584.503 596.564 584.503 596.166 584.104 L 596.166 584.104 C 595.767 583.706 595.767 583.058 596.166 582.66 L 600.024 578.801 L 600.024 578.801 L 602.578 576.248 L 602.578 576.248 L 602.578 576.248 L 606.428 572.397 C 606.827 571.998 607.474 571.998 607.873 572.397 L 607.873 572.397 C 608.272 572.796 608.272 573.443 607.873 573.842 L 604.022 577.692 L 606.321 579.991 C 606.791 580.461 607.56 580.467 608.038 580.005 Q 611.127 577.017 614.256 579.888 Q 614.286 579.914 614.345 579.971 C 614.685 580.311 614.872 580.771 614.872 581.247 C 614.876 581.728 614.685 582.183 614.344 582.524 L 612.978 583.89 C 611.935 584.933 610.522 585.52 609.05 585.52 C 607.577 585.52 606.156 584.933 605.117 583.894 C 605.117 583.894 605.117 583.894 605.117 583.894 L 601.469 580.246 Z  M 600.546 574.215 L 600.279 573.949 C 599.809 573.479 599.803 572.71 600.265 572.232 Q 603.253 569.142 600.382 566.014 Q 600.356 565.983 600.299 565.925 C 599.958 565.585 599.499 565.398 599.023 565.398 C 598.542 565.394 598.087 565.585 597.746 565.926 L 596.38 567.292 C 595.337 568.335 594.75 569.747 594.75 571.22 C 594.75 572.693 595.337 574.114 596.376 575.153 C 596.376 575.153 596.376 575.153 596.376 575.153 L 597.992 576.769 C 598.316 577.093 598.843 577.093 599.167 576.769 L 600.546 575.391 C 600.87 575.066 600.87 574.54 600.546 574.215 L 600.546 574.215 Z " fill-rule="evenodd" fill="rgb(0,0,0)"/></g></svg>
